modules/hawcons-stroke/icons/sunset.svg

<?xml version="1.0" encoding="UTF-8" standalone="no"?>
<svg width="32px" height="32px" viewBox="0 0 32 32" version="1.1" xmlns="http://www.w3.org/2000/svg" xmlns:xlink="http://www.w3.org/1999/xlink" xmlns:sketch="http://www.bohemiancoding.com/sketch/ns">
    <!-- Generator: Sketch 3.0.3 (7891) - http://www.bohemiancoding.com/sketch -->
    <title>icon 33 sunset</title>
    <desc>Created with Sketch.</desc>
    <defs></defs>
    <g id="Page-1" stroke="none" stroke-width="1" fill="none" fill-rule="evenodd" sketch:type="MSPage">
        <g id="icon-33-sunset" sketch:type="MSArtboardGroup" fill="#929292">
            <path d="M21.7929675,19 C21.1400387,16.6914951 19.0175544,15 16.5,15 C13.9824456,15 11.8599613,16.6914951 11.2070325,19 L12.2560585,19 C12.8738131,17.2522114 14.5406716,16 16.5,16 C18.4593284,16 20.1261869,17.2522114 20.7439415,19 L21.7929675,19 L21.7929675,19 Z M16.5,11 C16.2238576,11 16,11.2157526 16,11.495389 L16,13.504611 C16,13.7782068 16.2319336,14 16.5,14 C16.7761424,14 17,13.7842474 17,13.504611 L17,11.495389 C17,11.2217932 16.7680664,11 16.5,11 L16.5,11 Z M23.2380578,13.7909949 C23.0427957,13.5957328 22.7319443,13.5900017 22.5342115,13.7877344 L21.113477,15.208469 C20.9200156,15.4019304 20.9271859,15.7227637 21.1167375,15.9123153 C21.3119996,16.1075774 21.622851,16.1133085 21.8205838,15.9155758 L23.2413183,14.4948412 C23.4347797,14.3013798 23.4276094,13.9805465 23.2380578,13.7909949 L23.2380578,13.7909949 Z M9.76194219,13.7909949 C9.56668005,13.9862571 9.56094893,14.2971084 9.75868171,14.4948412 L11.1794162,15.9155758 C11.3728777,16.1090372 11.693711,16.1018668 11.8832625,15.9123153 C12.0785247,15.7170531 12.0842558,15.4062018 11.886523,15.208469 L10.4657885,13.7877344 C10.2723271,13.594273 9.95149377,13.6014434 9.76194219,13.7909949 L9.76194219,13.7909949 Z M7.5082041,21 C7.22753073,21 7,21.2319336 7,21.5 L7,21.5 C7,21.7761424 7.22661515,22 7.5082041,22 L25.4917959,22 C25.7724693,22 26,21.7680664 26,21.5 L26,21.5 C26,21.2238576 25.7733849,21 25.4917959,21 L7.5082041,21 L7.5082041,21 Z" id="sunset" sketch:type="MSShapeGroup"></path>
        </g>
    </g>
</svg>

<svg width="32" height="32" viewBox="0 0 32 32" xmlns="http://www.w3.org/2000/svg"><path d="M21.793 19a5.502 5.502 0 0 0-10.586 0h1.05a4.502 4.502 0 0 1 8.487 0h1.049zM16.5 11c-.276 0-.5.216-.5.495v2.01c0 .273.232.495.5.495.276 0 .5-.216.5-.495v-2.01a.503.503 0 0 0-.5-.495zm6.738 2.791a.494.494 0 0 0-.704-.003l-1.42 1.42a.503.503 0 0 0 .003.704.494.494 0 0 0 .704.004l1.42-1.421a.503.503 0 0 0-.003-.704zm-13.476 0a.494.494 0 0 0-.003.704l1.42 1.42a.503.503 0 0 0 .704-.003.494.494 0 0 0 .004-.704l-1.421-1.42a.503.503 0 0 0-.704.003zM7.508 21a.51.51 0 0 0-.508.5c0 .276.227.5.508.5h17.984a.51.51 0 0 0 .508-.5c0-.276-.227-.5-.508-.5H7.508z" fill="#929292" fill-rule="evenodd"/></svg>
